!!!!SEGMENT: pl-wnifc--493-n--011_oginski-michal-kleofas--16-polonaises-11-polonaise-in-d.krn
!!!cenid: 18xx:3870
!!!COM: Ogiński, Michał Kleofas
!!!COM-rismID: pe30002379
!!!CDT: 1765/09/25-1833/10/15
!!!CNT:
!!!OTL: 16 Polonaises
!!!PDT: 1864
!!!AGN:
!!!SMS-siglum: PL-Wnifc
!!!SMS-shelfmark: 493/n
!!!SMS-shelfwork: 011 W
!!!SMS-variant:
!!!SMS-altvar:
!!!NIFC-rismSourceID: 1001157350
!!!NIFC-rismChildID: 1001157363
!!!NIFC-islandoraID: nifc:212371
!!!URL-pdf-islandora: https://repozytorium.nifc.pl/islandora/object/nifc%3A212371/datastream/PDF/view
!!!URL-scan: https://polish.musicsources.pl/pl/lokalizacje/galeria/druki-muzyczne/16843 @EN{Scan on Polish Music Sources Website} @PL{Skany w portalu Dziedzictwo Muzyki Polskiej w otwartym dostępie}
!!!ONB-nifc: UWAGA: w zbiorze znajduje się 14 Polonezów z Triami, pliki są numerowane jak w źródle.
!!!AIN: 1 piano
!!!key: d
!!!filter-modern: sic -sq | shed -k -e "s/:TUP:/:tup:/L" | shed -e "s/TX(.*):t=P:/tx$1:t=P:/LG" | shed -k -e "s/LO:N:vis/LO:n:vis:/L"  | shed -e "s/:rj/:RJ/L" | shed -k -e "s/([^a-gA-Gn#X-])[<>]/$1/g" | shed -e "s/LO:DY:(a|b|rj)/LO:dy:$1/L" | shed -e "s/-//B" | autostem -r | modori -m
!!!OMD:
!!!OMD-mod: Patetico
**kern	**kern	**dynam
*part1	*part1	*part1
*staff2	*staff1	*
*I"Piano.	*I"Piano.	*
*I'	*I'	*
*Ipiano	*Ipiano	*
*ICklav	*ICklav	*
*IGsolo	*IGsolo	*
*mI"Pianoforte	*mI"Pianoforte	*
*mI'pf	*mI'pf	*
*clefF4	*clefG2	*
*k[b-]	*k[b-]	*
*d:	*d:	*
*M3/4	*M3/4	*
*>[A,B,A,B,C,C,B,D,D,A,B]	*>[A,B,A,B,C,C,B,D,D,A,B]	*
=1	=1	=1
*>A	*>A	*
!	!LO:TX:a:t=Patet co.:mod=	!
8.D\L	8.d/L	f
16D\Jk	16d/Jk	.
8.FF/L 8.F	8.f/L	.
16FF/Jk 16F	16f/Jk	.
8.AA\L 8.A	8.a/L	.
16AA\Jk 16A	16a/Jk	.
=2	=2	=2
8D\L 8d	8dd\L	.
8D'\J 8F 8A 8d	8dd\J	.
8D'\L 8F 8A 8d	16r	.
.	(16ee\LL	.
8D'\ 8F 8A 8d	16ff\	.
.	16ee\JJ	.
8D'\ 8F 8A 8d	16gg\LL	.
.	16ff\	.
8D'\J 8F 8A 8d	16ee\	.
.	16dd\JJ)	.
=3	=3	=3
8.A\L 8.c#X	8.a/L	.
16AA\Jk	16A/Jk 16a	.
8.CC#X/L 8.C#X	8.c#X/L 8.cc#X	.
16CC#/Jk 16C#	16c#/Jk 16cc#	.
8.EE/L 8.E	8.e/L 8.ee	.
16EE/Jk 16E	16e/Jk 16ee	.
!!LO:LB:g=original
=4	=4	=4
8AA\L 8A	8a\L 8aa	.
8A'\J 8c#X 8g	8a\J 8aa	.
8A'\L 8c# 8g	16r	.
.	(16gg#X\LL	.
8A'\ 8c# 8g	16aa\	.
.	16bb-\JJ	.
8A'\ 8c# 8g	16aa\LL	.
.	16ggn\	.
8A'\J 8c# 8g	16ff\	.
.	16ee\JJ)	.
=5	=5	=5
8D\L	(16dd\LL	.
.	16cc#X\	.
8d\J 8f	16dd\	.
.	16ee\JJ	.
8d\L 8f	16ff\LL	.
.	16ee\	.
8d\J 8f	16dd\	.
.	16ee\JJ	.
8B-\L 8d	16ff\LL	.
.	16ee\	.
8B-\J 8d	16ff\	.
.	16gg#X\JJ)	.
=6	=6	=6
8A\L 8c#X	8aa\L	.
(16A\L	(16aa\L	.
16G#X\JJ	16gg#X\JJ	.
16A\LL	16aa\LL	.
16G#\	16gg#\	.
16A\	16aa\	.
16G#\JJ)	16gg#\JJ)	.
4A\	4aa\	.
!!LO:LB:g=original
!LO:TX:b:t=[segno]	!LO:TX:t=[segno]	!
=7||	=7||	=7||
*>B	*>B	*
*^	*	*
!	!LO:N:vis=2	!LO:TX:b:i:t=espress.	!
2.D/	8D\L	4.a/	p
.	8F\J 8A 8d	.	.
.	8F\L 8A 8d	.	.
.	8F\ 8A 8d	8a/L	.
.	.	8qcc/	.
.	8F\ 8A 8d	8.b-/	.
.	8F\J 8A 8d	.	.
.	.	16a/Jk	.
=8	=8	=8	=8
!	!LO:N:vis=2	!	!
2D/	8D\L	8.a\L	.
.	8F\ 8A 8d	.	.
.	.	16ff\Jk	.
.	8F\ 8A 8d	(4.ff^\	.
.	8F\J 8A 8d	.	.
4E/	8E\L	.	.
.	8G\J 8A 8c#X	8ee\)	.
=9	=9	=9	=9
!	!LO:N:vis=2	!	!
2F/	8F\L	8.ee\L	.
.	8A\ 8d	.	.
.	.	16dd\Jk	.
.	8A\ 8d	8ddT\L	.
.	8A\J 8d	(16cc#X\L	.
.	.	16dd\JJ	.
4GG#X/	8GG#\L	8.ee\L	.
.	8D\J 8F	.	.
.	.	16dd\Jk)	.
=10	=10	=10	=10
!	!LO:N:vis=2	!	!
2AA/	8AA\L	8.dd\L	.
.	8C#X\ 8E	.	.
.	.	16cc#X\Jk	.
.	8C#\ 8E	(4.cc#\	.
.	8C#\J 8E	.	.
4AA/	8AA\L	.	.
.	8C#\J 8E	8a/)	.
!!LO:LB:g=original
=11	=11	=11	=11
!	!LO:N:vis=2	!	!
2GG/	8GG\L	[4b-^\	.
.	8Cn\ 8E	.	.
.	8C\ 8E	16b-/LL]	.
.	.	(>16a/	.
.	8C\J 8E	16g/	.
.	.	16f/JJ	.
4C/	8C\L	16e/LL	.
.	.	16dd/	.
.	8E\J 8G 8c	16cc/	.
.	.	16b-/JJ)	.
=12	=12	=12	=12
!	!LO:N:vis=2	!	!
2F/	8F\L	(16b-\LL	.
.	.	16a\	.
.	8A\ 8c	16dd\	.
.	.	16cc\JJ)	.
.	8A\ 8c	(4.cc\	.
.	8A\J 8c	.	.
4E/	8E\L	.	.
.	8G\J 8A	8cc#X\)	.
*v	*v	*	*
=13	=13	=13
*	*^	*
4D\	16dd'\LL	4ryy	.
.	(16dd\	.	.
.	16ccn\	.	.
.	16b-\JJ)	.	.
4F#X\	(16a/LL	4d\	.
.	16cc/	.	.
.	16b-/	.	.
.	16a/JJ)	.	.
4G\	(16g/LL	4d\	.
.	16b-/	.	.
.	16a/	.	.
.	16g/JJ)	.	.
*	*v	*v	*
=14	=14	=14
8A\L	(16fn/LL	.
.	16d/	.
8AA\J	16c#X/	.
.	16e/JJ)	.
8r	(>4G</ 4c# 4e	.
8AA\L	.	.
8D\J	8F</) 8d	.
!	!LO:TX:b:i:t=Fine.:mod=	!
8r	8r	.
!!LO:TX:a:B:rj:t=:mod=Fine
!!LO:PB:g=original
=15:|!|:	=15:|!|:	=15:|!|:
*>C	*>C	*
!	!LO:TX:b:i:t=espress.:mod=espress.	!
(8AA\L	(4.ee\	.
8A\J	.	.
8c#X\L 8g	.	.
8A\	8a/L	.
.	8qccn/	.
8c#\ 8g	8b-/	.
8A\J)	8a/J)	.
=16	=16	=16
(8D\L	(8.ff\L	.
8A\J	.	.
.	16ee\Jk)	.
8d\L 8f	4dd\	.
8A\	.	.
8d\ 8f	4r	.
8A\J)	.	.
=17	=17	=17
(8C#X\L	[4ee\	.
8A\J	.	.
8e\L 8g	16ee\LL]	.
.	(16a\	.
8A\	16g#X\	.
.	16a\JJ	.
8e\ 8g	16b-/LL	.
.	16a/	.
8A\J)	16g#/	.
.	16a/JJ)	.
=18	=18	=18
(8D\L	(8.ff\L	.
8A\J	.	.
.	16ee\Jk	.
8d\L 8f	4dd\)	.
8A\	.	.
8d\ 8f	4r	.
8A\J)	.	.
!!LO:LB:g=original
=19	=19	=19
*^	*	*
!	!LO:N:vis=2	!	!
2F/	8F\L	4.b-\	.
.	8A\ 8d	.	.
.	8A\ 8d	.	.
.	8A\J 8d	(8a\L	.
4F#X/	8F#\L	8dd\	.
.	8A\J 8d	8cc\J)	.
=20	=20	=20	=20
!	!LO:N:vis=2	!	!
2G/	8G\L	(8.cc\L	.
.	8B-\ 8d	.	.
.	.	16b-\Jk)	<
.	8B-\ 8d	(4.b-\	.
.	8B-\J 8d	.	.
4A/	8A\L	.	.
.	8d\J 8f	8a/)	[[
=21	=21	=21	=21
!	!LO:N:vis=2	!	!
2B-/	8B-\L	4.g#X/	f
.	8d\ 8f	.	.
.	8d\ 8f	.	.
.	8d\J 8f	(8ff\L	.
4B-/	8B-\L	8ee\	.
.	8d\J 8g#X	8dd\J)	.
*v	*v	*	*
=22	=22	=22
4A\ 4e 4a	(16cc#X\LL	>
.	16ee\	.
.	16gg\	.
.	16ff\JJ	.
4r	16ee\LL	.
.	16dd\	.
.	16cc#\	.
.	16b-\JJ	.
!LO:TX:b:i:t=Dal Segno.\nal Fine.:mod=	!	!
4r	16a/LL	.
.	16b-/	.
.	16a/	]
.	16g#X/JJ)	.
!LO:TX:b:t=[segno]	!LO:TX:t=[segno]	!
!!LO:TX:a:B:rj:t=:mod=Dal Segno al Fine
!!LO:LB:g=original
!LO:MO:mod==23:|!|:	!LO:MO:mod==23:|!|:	!LO:MO:mod==23:|!|:
==23	==23	==23
*>D	*>D	*
*^	*	*
!	!	!LO:TX:b:i:t=dolce.:mod=dolce	!
2.F/	8F\L	(4.cc\	p
.	8A\J 8c	.	.
.	8A\L 8c	.	.
.	8A\ 8c	16aa\LL	.
.	.	16gg\JJ	.
.	8A\ 8c	16ff\LL	.
.	.	16ee\	.
.	8A\J 8c	16dd\	.
.	.	16cc\JJ)	.
=24	=24	=24	=24
2.F/	8F\L	(16dd\LL	.
.	.	16cc\	.
.	8A\J 8c	16bn\	.
.	.	16cc\JJ	.
.	8A\L 8c	4.a/	.
.	8A\ 8c	.	.
.	8A\ 8c	.	.
.	8A\J 8c	8cc\)	.
!!LO:LB:g=original
=25	=25	=25	=25
4E/	8E\L	(16cc\LL	.
.	.	16b-\	.
.	8G\J 8B- 8c	16gg\	.
.	.	16ee\JJ	.
4C/	8C\L	16cc/LL	.
.	.	16b-/	.
.	8G\J 8B- 8c	16g/	.
.	.	16e/JJ)	.
4F/	8F\L	(16f/LL	.
.	.	16a/	.
.	8A\J 8c	16dd/	.
.	.	16cc/JJ)	.
=26	=26	=26	=26
!	!LO:N:vis=2	!	!
2C/	8C\L	(16cc\LL	.
.	.	16b-\	.
.	8E\ 8G 8c	16a\	.
.	.	16b-\JJ)	.
.	8E\ 8G 8c	(4.g/	.
.	8E\J 8G 8c	.	.
4C/	8C\L	.	.
.	8E\J 8G 8c	16a/LL	.
.	.	16b-/JJ	.
=27	=27	=27	=27
8F\L	2ryy	8cc\)	.
8A\ 8c	.	4cc^\	.
8A\ 8c	.	.	.
8A\J 8c	.	(16aa\LL	.
.	.	16gg\JJ	.
4AA/	8AA\L	16ff\LL	.
.	.	16ee\	.
.	8C\J 8F	16dd\	.
.	.	16cc\JJ)	.
!!LO:LB:g=original
=28	=28	=28	=28
4BB-/	8BB-\L	(16dd\LL	.
.	.	16ff\	.
.	8D\J 8F	16bb-\	.
.	.	16ddd\JJ)	.
!	!LO:N:vis=2	!	!
2BBn/	8BB\L	(4.fff^\	.
.	8D\ 8F 8G#X	.	.
.	8D\ 8F 8G#	.	.
.	8D\J 8F 8G#	16eee\LL	.
.	.	16ddd\JJ)	.
=29	=29	=29	=29
4C/	8C\L	(16ddd^\LL	.
.	.	16ccc\	.
.	8F\J 8A	16aa\	.
.	.	16ff\JJ)	.
4C/	8C\L	(16dd^>/LL	.
.	.	16cc/	.
.	8F\J 8A	16a/	.
.	.	16f/JJ)	.
4C/	8C\L	(16dd^>/LL	.
.	.	16cc/	.
.	8G\J 8B-	16b-/	.
.	.	16e/JJ)	.
*v	*v	*	*
=30	=30	=30
8F\L 8A	8f/L	.
8C\J 8E 8B-	(16a/L	.
.	16g/JJ)	.
!LO:TX:b:i:t=Da Capo al Fine.:mod=	!	!
8r	(4g/	.
(8C\L 8E 8B-	.	.
8F\J) 8A	8f/)	.
8r	8r	.
!!LO:TX:a:B:t=:mod=Da Capo al Fine
=:|!	=:|!	=:|!
*-	*-	*-
!!!RDF**kern: > = above
!!!RDF**kern: < = below
!!!system-decoration: {(*)}
!!!ENC: Berenika Jozajtis
!!!END: 2022-07-25
!!!ENC: Urszula Świątek
!!!END: 2022-08-22
!!!ENC-modern: Andrzej Borzym
!!!END-modern: 2022-08-30
!!!YEC: Copyright 2022 Narodowy Instytut Fryderyka Chopina (https://polishscores.org)
!!!YEM: License CC-BY-4.0 (https://creativecommons.org/licenses/by/4.0)
